images/svg/icon_facebook.svg

<svg width="6" height="12.875" version="1.1" viewBox="0 0 6 12.875067" xml:space="preserve" xmlns="http://www.w3.org/2000/svg"><defs><clipPath id="clipPath122"><path d="m0 9.656h4.5v-9.656h-4.5z"/></clipPath></defs><g transform="matrix(1.3333 0 0 -1.3333 0 12.875)"><g clip-path="url(#clipPath122)"><g transform="translate(2.9942,6.4922)"><path d="m0 0h1.506l-0.176-1.664h-1.33v-4.828h-1.998v4.828h-0.996v1.664h0.996v1.002c0 0.711 0.168 1.25 0.504 1.615s0.889 0.547 1.658 0.547h1.33v-1.664h-0.832c-0.152 0-0.274-0.012-0.366-0.037-0.092-0.026-0.158-0.072-0.199-0.139-0.041-0.066-0.068-0.133-0.079-0.201-0.012-0.068-0.018-0.166-0.018-0.291z"/></g></g></g></svg>

<?xml version="1.0" encoding="UTF-8" standalone="no"?>
<!-- Created with Inkscape (http://www.inkscape.org/) -->

<svg
   xmlns:dc="http://purl.org/dc/elements/1.1/"
   xmlns:cc="http://creativecommons.org/ns#"
   xmlns:rdf="http://www.w3.org/1999/02/22-rdf-syntax-ns#"
   xmlns:svg="http://www.w3.org/2000/svg"
   xmlns="http://www.w3.org/2000/svg"
   xmlns:sodipodi="http://sodipodi.sourceforge.net/DTD/sodipodi-0.dtd"
   xmlns:inkscape="http://www.inkscape.org/namespaces/inkscape"
   version="1.1"
   id="svg4537"
   xml:space="preserve"
   width="6"
   height="12.875067"
   viewBox="0 0 6 12.875067"
   sodipodi:docname="icon_facebook.svg"
   inkscape:version="0.92.1 r15371"><metadata
     id="metadata4543"><rdf:RDF><cc:Work
         rdf:about=""><dc:format>image/svg+xml</dc:format><dc:type
           rdf:resource="http://purl.org/dc/dcmitype/StillImage" /><dc:title></dc:title></cc:Work></rdf:RDF></metadata><defs
     id="defs4541"><clipPath
       clipPathUnits="userSpaceOnUse"
       id="clipPath4553"><path
         d="M 0,9.656 H 4.5 V 0 H 0 Z"
         id="path4551"
         inkscape:connector-curvature="0" /></clipPath></defs><sodipodi:namedview
     pagecolor="#ffffff"
     bordercolor="#666666"
     borderopacity="1"
     objecttolerance="10"
     gridtolerance="10"
     guidetolerance="10"
     inkscape:pageopacity="0"
     inkscape:pageshadow="2"
     inkscape:window-width="715"
     inkscape:window-height="480"
     id="namedview4539"
     showgrid="false"
     inkscape:zoom="18.330002"
     inkscape:cx="3"
     inkscape:cy="6.4375334"
     inkscape:window-x="80"
     inkscape:window-y="112"
     inkscape:window-maximized="0"
     inkscape:current-layer="g4545" /><g
     id="g4545"
     inkscape:groupmode="layer"
     inkscape:label="icon_facebook"
     transform="matrix(1.3333333,0,0,-1.3333333,0,12.875067)"><g
       id="g4547"><g
         id="g4549"
         clip-path="url(#clipPath4553)"><g
           id="g4555"
           transform="translate(2.9942,6.4922)"><path
             d="M 0,0 H 1.506 L 1.33,-1.664 H 0 v -4.828 h -1.998 v 4.828 H -2.994 V 0 h 0.996 v 1.002 c 0,0.711 0.168,1.25 0.504,1.615 0.336,0.365 0.889,0.547 1.658,0.547 h 1.33 V 1.5 H 0.662 C 0.51,1.5 0.388,1.488 0.296,1.463 0.204,1.437 0.138,1.391 0.097,1.324 0.056,1.258 0.029,1.191 0.018,1.123 0.006,1.055 0,0.957 0,0.832 Z"
             style="fill:#000000;fill-opacity:1;fill-rule:nonzero;stroke:none"
             id="path4557"
             inkscape:connector-curvature="0" /></g></g></g></g></svg>
